public/svg/Bigger_icon.svg

<svg id="Слой_1" data-name="Слой 1" xmlns="http://www.w3.org/2000/svg" viewBox="0 0 20 20"><defs><style>.cls-1{fill:#ea5a5a}</style></defs><path class="cls-1" d="M19 1v18H1V1h18m1-1H0v20h20V0z"/><path class="cls-1" d="M8 4v4H4V4h4m1-1H3v6h6V3zm7 1v4h-4V4h4m1-1h-6v6h6V3zm-9 9v4H4v-4h4m1-1H3v6h6v-6zm7 1v4h-4v-4h4m1-1h-6v6h6v-6z"/></svg>

<svg id="Слой_1" data-name="Слой 1" xmlns="http://www.w3.org/2000/svg" viewBox="0 0 20 20"><defs><style>.cls-1{fill:#ea5a5a;}</style></defs><title>Bigger icon</title><path class="cls-1" d="M19,1V19H1V1H19m1-1H0V20H20V0Z"/><path class="cls-1" d="M8,4V8H4V4H8M9,3H3V9H9V3Z"/><path class="cls-1" d="M16,4V8H12V4h4m1-1H11V9h6V3Z"/><path class="cls-1" d="M8,12v4H4V12H8m1-1H3v6H9V11Z"/><path class="cls-1" d="M16,12v4H12V12h4m1-1H11v6h6V11Z"/></svg>
